dist/img/skills/basic/css3.svg

<svg width="128" height="128" viewBox="0 0 128 128" fill="none" xmlns="http://www.w3.org/2000/svg">
<g opacity="0.32">
<path fill-rule="evenodd" clip-rule="evenodd" d="M99.84 102.4L64 112.64L28.16 102.4L20.48 15.36H107.52C104.96 44.3701 102.4 73.3901 99.84 102.4ZM101.93 20.48H26.07L32.95 98.4401L64 107.32L95.05 98.4401L101.93 20.48ZM43.01 71.6801H53.25L53.5 78.0801L64 81.6601L74.5 78.0801L75.26 66.5601H52.74L52.22 56.3201H75.78L76.54 46.0801H41.22L40.45 35.8401H87.3L86.02 56.3201L84.22 85.7601L64 92.4201L43.78 85.7601L43.01 71.6801Z" fill="#F8F8FF"/>
</g>
</svg>

<svg width="128" height="128" fill="none" xmlns="http://www.w3.org/2000/svg"><path fill-rule="evenodd" clip-rule="evenodd" d="M99.84 102.4L64 112.64 28.16 102.4l-7.68-87.04h87.04l-7.68 87.04zm2.09-81.92H26.07l6.88 77.96L64 107.32l31.05-8.88 6.88-77.96zm-58.92 51.2h10.24l.25 6.4L64 81.66l10.5-3.58.76-11.52H52.74l-.52-10.24h23.56l.76-10.24H41.22l-.77-10.24H87.3l-1.28 20.48-1.8 29.44L64 92.42l-20.22-6.66-.77-14.08z" fill="#F8F8FF" opacity=".32"/></svg>
